X:6070
T:Garfield Vale
R:reel
C:Jerry Holland, SOCAN
S:Tune of the Month, Aug. 2001
A:www.jerryholland.com
Q:300
L:1/8
M:C|
K:D
g|:fd d/d/d dAFD|EA, A,/A,/A, CEAG|FD D/D/D FAdf|gfed ceag|!
fd d/d/d dAFD|EA, A,/A,/A, CEAG|FEFA GFGB|1Adce dDDe:|2Adce d2 d||!
A|:dfaf dfaf|egbg egbg|dfaf dfaf|1edcB A2 Ac|
dfaf dfaf|egbg egbg|bged cAGE|D2 F2 DABc:|!
[2edcB Agfe|fd d/d/d dAFD|EA, A,/A,/A, CEAG|FEFA GFGB|Adce d2 d|]!
